X: 2
T: The Seven Step
R: barndance
M: 4/4
L: 1/8
K: Gmaj
|:A4 A4|ABcA F2 E2|c4 c4|cdec B3B|cdec B2 A2|ABcA F2E2|EFAB ceec|B2 A2 A4:|||:cdec B2 A2|ABcA F2 E2|EFAB ceec|c2 B2 B3B|cdec B2 A2|ABcA F2 E2|EFAB ceec|B2 A2 A4:||


Tune 1307	Setting 14624

